uploads/global/teams_05.svg

<svg height="40" viewBox="0 0 40 40" width="40" xmlns="http://www.w3.org/2000/svg"><g fill="#04de47" fill-rule="evenodd" transform="translate(2.955586 4.223077)"><path d="m11.4764747 9.79585641 2.6662373-.40768718.7504122-.11364102.3226204-.6861077 1.1284608-2.40350769 1.1284608 2.40350769.3226204.6861077.7504122.11364102 2.6662374.40768718-1.9769383 2.02565129-.5002748.5128051.1151201.7074154.4519528 2.7657385-2.2697127-1.2528923-.6878779-.3806975-.6878778.3806975-2.2697127 1.2528923.4519528-2.7657385.11512-.7074154-.5002748-.5128051z" opacity=".15"/><path d="m29.8459403 1.42051282v18.46666668h-8.5274115-12.79111728-7.10617627v1.4205128h8.52741152 12.79111733 8.5274115v-19.88717948z" opacity=".15"/><path d="m11.369882 22.728205h9.948647v1.420513h-9.948647z" opacity=".15"/><g fill-rule="nonzero"><path d="m31.2671756 0h-29.84594035c-.78492655 0-1.42123525.63598525-1.42123525 1.42051282v19.88717948c0 .7845276.6363087 1.4205128 1.42123525 1.4205128h8.52741152v9.9435898l6.39555863-2.8410257 6.3955587 2.8410257v-9.9435898h8.5274115c.7849265 0 1.4212352-.6359852 1.4212352-1.4205128v-19.88717948c0-.78452757-.6363087-1.42051282-1.4212352-1.42051282zm-19.8972936 22.7282051h4.2637058v5.8637349l-4.2637058 1.8939697zm9.9486468 7.7577046-4.2637058-1.8939697v-5.8637349h4.2637058zm9.9486468-9.1782174h-29.84594035v-19.88717948h29.84594035z"/><path d="m11.5131425 18.4666667 4.8310629-2.6690016 4.8310629 2.6690016-.9226659-5.6536411 3.9083969-4.00343124-5.400694-.82474974-2.4160999-5.14381898-2.4160999 5.14381898-5.40069398.82474974 3.90839698 4.00343124zm-.0369521-8.67052619 2.6670901-.40754513.7498437-.11449333.3221941-.68596564 1.1288871-2.40393385 1.1288872 2.4040759.322194.68596564.7498437.11449334 2.6670901.40754512-1.9769382 2.02494104-.5007012.5132313.1154043.7074154.4513843 2.7661646-2.2695706-1.2537446-.6875936-.3799872-.6875936.3801292-2.2695706 1.2537446.4513843-2.7661646.1154043-.7074154-.5007011-.5132313z"/></g></g></svg>

<?xml version="1.0" encoding="UTF-8"?>
<svg width="40px" height="40px" viewBox="0 0 40 40" version="1.1" xmlns="http://www.w3.org/2000/svg" xmlns:xlink="http://www.w3.org/1999/xlink">
    <!-- Generator: Sketch 52.4 (67378) - http://www.bohemiancoding.com/sketch -->
    <title>assets/homepage/teams_05</title>
    <desc>Created with Sketch.</desc>
    <g id="Page-1" stroke="none" stroke-width="1" fill="none" fill-rule="evenodd">
        <g id="Wunder-Careers-03-Teams" transform="translate(-40.000000, -5149.000000)" fill="#04DE47">
            <g id="Enginiering-Copy-8" transform="translate(10.000000, 4895.000000)">
                <g id="Group-17" transform="translate(30.000000, 254.000000)">
                    <g id="membership-card" transform="translate(2.955586, 4.223077)">
                        <polygon id="Path" opacity="0.149999991" points="11.4764747 9.79585641 14.142712 9.38816923 14.8931242 9.27452821 15.2157446 8.58842051 16.3442054 6.18491282 17.4726662 8.58842051 17.7952866 9.27452821 18.5456988 9.38816923 21.2119362 9.79585641 19.2349979 11.8215077 18.7347231 12.3343128 18.8498432 13.0417282 19.301796 15.8074667 17.0320833 14.5545744 16.3442054 14.1738769 15.6563276 14.5545744 13.3866149 15.8074667 13.8385677 13.0417282 13.9536877 12.3343128 13.4534129 11.8215077"></polygon>
                        <polygon id="Path" opacity="0.149999991" points="29.8459403 1.42051282 29.8459403 19.8871795 21.3185288 19.8871795 8.52741152 19.8871795 1.42123525 19.8871795 1.42123525 21.3076923 9.94864677 21.3076923 22.7397641 21.3076923 31.2671756 21.3076923 31.2671756 1.42051282"></polygon>
                        <rect id="Rectangle" opacity="0.149999991" x="11.369882" y="22.7282051" width="9.94864677" height="1.42051282"></rect>
                        <path d="M31.2671756,0 L1.42123525,0 C0.636308697,0 0,0.635985253 0,1.42051282 L0,21.3076923 C0,22.0922199 0.636308697,22.7282051 1.42123525,22.7282051 L9.94864677,22.7282051 L9.94864677,32.6717949 L16.3442054,29.8307692 L22.7397641,32.6717949 L22.7397641,22.7282051 L31.2671756,22.7282051 C32.0521021,22.7282051 32.6884108,22.0922199 32.6884108,21.3076923 L32.6884108,1.42051282 C32.6884108,0.635985253 32.0521021,0 31.2671756,0 Z M11.369882,22.7282051 L15.6335878,22.7282051 L15.6335878,28.59194 L11.369882,30.4859097 L11.369882,22.7282051 Z M21.3185288,30.4859097 L17.054823,28.59194 L17.054823,22.7282051 L21.3185288,22.7282051 L21.3185288,30.4859097 Z M31.2671756,21.3076923 L1.42123525,21.3076923 L1.42123525,1.42051282 L31.2671756,1.42051282 L31.2671756,21.3076923 Z" id="Shape" fill-rule="nonzero"></path>
                        <path d="M11.5131425,18.4666667 L16.3442054,15.7976651 L21.1752683,18.4666667 L20.2526024,12.8130256 L24.1609993,8.80959436 L18.7603053,7.98484462 L16.3442054,2.84102564 L13.9281055,7.98484462 L8.52741152,8.80959436 L12.4358085,12.8130256 L11.5131425,18.4666667 Z M11.4761904,9.79614051 L14.1432805,9.38859538 L14.8931242,9.27410205 L15.2153183,8.58813641 L16.3442054,6.18420256 L17.4730926,8.58827846 L17.7952866,9.2742441 L18.5451303,9.38873744 L21.2122204,9.79628256 L19.2352822,11.8212236 L18.734581,12.3344549 L18.8499853,13.0418703 L19.3013696,15.8080349 L17.031799,14.5542903 L16.3442054,14.1743031 L15.6566118,14.5544323 L13.3870412,15.8081769 L13.8384255,13.0420123 L13.9538298,12.3345969 L13.4531287,11.8213656 L11.4761904,9.79614051 Z" id="Shape" fill-rule="nonzero"></path>
                    </g>
                </g>
            </g>
        </g>
    </g>
</svg>
